X: 11341
Q: "Slow."
M: 6/8
L: 1/8
K: Bb
|: e |\
def f2f | g>fe fdB | def gab | B>cB BGF |\
ege dfd | c>Bc dBG | BAG Ffe | d>ec B2 :|


